public/skills/mongodb.svg

<svg width="599" height="1334" viewBox="0 0 599 1334" fill="none" xmlns="http://www.w3.org/2000/svg">
<path d="M295.27 3.64844L330.85 70.4784C338.85 82.8084 347.52 93.7284 357.72 103.898C387.51 133.688 415.8 164.888 441.22 198.308C501.5 277.468 542.17 365.378 571.2 460.448C588.62 518.528 598.07 578.108 598.78 638.348C601.69 818.458 539.95 973.108 415.47 1101.63C395.14 1121.96 373.39 1140.79 350.06 1157.54C337.73 1157.54 331.89 1148.08 326.81 1139.38C317.36 1123.42 311.56 1105.21 308.65 1087.09C304.27 1065.29 301.4 1043.51 302.82 1021.01V1010.85C301.82 1008.68 290.95 8.77844 295.28 3.65844V3.66844L295.27 3.64844Z" fill="#737373"/>
<path d="M295.272 1.43084C293.812 -1.47916 292.362 0.720845 290.892 2.14084C291.602 16.7208 286.512 29.7208 278.562 42.1408C269.812 54.4708 258.232 63.9408 246.602 74.1008C182.032 130.011 131.202 197.551 90.4919 273.081C36.3319 374.741 8.41187 483.681 0.501871 598.381C-3.11813 639.751 13.5919 785.741 26.6319 827.861C62.2119 939.681 126.122 1033.38 208.902 1114.7C229.232 1134.28 250.982 1152.44 273.482 1169.9C280.022 1169.9 280.732 1164.07 282.222 1159.73C285.072 1150.45 287.282 1140.97 288.762 1131.39L303.342 1022.49L295.262 1.43084H295.272Z" fill="#ADADAD"/>
<path d="M330.854 1201.77C332.314 1185.1 340.314 1171.27 349.024 1157.48C340.274 1153.86 333.774 1146.65 328.694 1138.61C324.314 1131.36 320.694 1122.65 317.864 1114.65C307.694 1084.15 305.534 1052.15 302.614 1020.99V1002.12C298.994 1005.03 298.234 1029.7 298.234 1033.37C296.204 1066.22 291.694 1099.17 285.154 1131.42C282.984 1144.5 281.534 1157.54 273.484 1169.16C273.484 1170.62 273.484 1172.07 274.194 1174.25C287.274 1212.75 290.864 1251.95 293.064 1291.91V1306.49C293.064 1323.9 292.354 1320.23 306.814 1326.07C312.644 1328.24 319.144 1328.98 324.974 1333.32C329.354 1333.32 330.064 1329.7 330.064 1326.78L327.894 1302.82V1235.99C327.184 1224.32 329.354 1212.74 330.804 1201.83L330.854 1201.77V1201.77Z" fill="#C2BFBF"/>
</svg>

<svg xmlns="http://www.w3.org/2000/svg" viewBox="0 0 598.88 1333.33" shape-rendering="geometricPrecision" text-rendering="geometricPrecision" image-rendering="optimizeQuality" fill-rule="evenodd" clip-rule="evenodd"><g fill-rule="nonzero"><path d="M295.27 3.65l35.58 66.83c8 12.33 16.67 23.25 26.87 33.42 29.79 29.79 58.08 60.99 83.5 94.41 60.28 79.16 100.95 167.07 129.98 262.14 17.42 58.08 26.87 117.66 27.58 177.9 2.91 180.11-58.83 334.76-183.31 463.28-20.33 20.33-42.08 39.16-65.41 55.91-12.33 0-18.17-9.46-23.25-18.16-9.45-15.96-15.25-34.17-18.16-52.29-4.38-21.8-7.25-43.58-5.83-66.08v-10.16c-1-2.17-11.87-1002.07-7.54-1007.19v.01z" fill="#599636"/><path d="M295.27 1.43c-1.46-2.91-2.91-.71-4.38.71.71 14.58-4.38 27.58-12.33 40-8.75 12.33-20.33 21.8-31.96 31.96-64.57 55.91-115.4 123.45-156.11 198.98C36.33 374.74 8.41 483.68.5 598.38c-3.62 41.37 13.09 187.36 26.13 229.48 35.58 111.82 99.49 205.52 182.27 286.84 20.33 19.58 42.08 37.74 64.58 55.2 6.54 0 7.25-5.83 8.74-10.17 2.85-9.28 5.06-18.76 6.54-28.34l14.58-108.9L295.26 1.43z" fill="#6cac48"/><path d="M330.85 1201.77c1.46-16.67 9.46-30.5 18.17-44.29-8.75-3.62-15.25-10.83-20.33-18.87-4.38-7.25-8-15.96-10.83-23.96-10.17-30.5-12.33-62.5-15.25-93.66v-18.87c-3.62 2.91-4.38 27.58-4.38 31.25-2.03 32.85-6.54 65.8-13.08 98.05-2.17 13.08-3.62 26.12-11.67 37.74 0 1.46 0 2.91.71 5.09 13.08 38.5 16.67 77.7 18.87 117.66v14.58c0 17.41-.71 13.74 13.75 19.58 5.83 2.17 12.33 2.91 18.16 7.25 4.38 0 5.09-3.62 5.09-6.54l-2.17-23.96v-66.83c-.71-11.67 1.46-23.25 2.91-34.16l.05-.06z" fill="#c2bfbf"/></g></svg>
